!!!!SEGMENT: pl-sa--10-a-i-10_anonim--ave-maris-stella-regina-caeli.krn
!!!cenid: 17xx:1266
!!!COM: Anonim
!!!COM-rismid: pe30004985
!!!CDT:
!!!CNT:
!!!OTL: Ave maris stella - Regina caeli
!!!PDT:
!!!AGN: Sacred
!!!SMS-siglum: PL-SA
!!!SMS-shelfmark: 10/A I 10
!!!SMS-shelfwork: W
!!!SMS-variant:
!!!SMS-altvar:
!!!NIFC-rismid: 1001030082
!!!system-decoration: [(s1,s2)][(s3,s4)]s5
!!!AIN: 1 alto 1 empty 2 violn 1 vox
!!!key:
**kern	**fba	**dynam	**kern	**dynam	**kern	**dynam	**kern	**text	**text	**kern	**text	**text
*part5	*part5	*part5	*part4	*part4	*part3	*part3	*part2	*part2	*part2	*part1	*part1	*part1
*staff5	*staff5	*	*staff4	*	*staff3	*	*staff2	*staff2	*staff2	*staff1	*staff1	*staff1
*Iempty	*	*	*Ivioln	*	*Ivioln	*	*Ialto	*	*	*Ivox	*	*
*I"Fundamento	*	*	*I"Violino 2do	*	*I"Violino Imo	*	*I"Alto	*	*	*I"Canto	*	*
*I'Org.	*	*	*I'Vn II	*	*I'Vn I	*	*I'A.	*	*	*I'C.	*	*
*clefF4	*	*	*clefG2	*	*clefG2	*	*clefC3	*	*	*clefC1	*	*
*k[f#]	*	*	*k[f#]	*	*k[f#]	*	*k[f#]	*	*	*k[f#]	*	*
*g:	*	*	*g:	*	*g:	*	*g:	*	*	*g:	*	*
*M2/4	*	*	*M2/4	*	*M2/4	*	*M2/4	*	*	*M2/4	*	*
=1	=1	=1	=1	=1	=1	=1	=1	=1	=1	=1	=1	=1
*2\right	*	*	*2\right	*	*2\right	*	*2\right	*	*	*2\right	*	*
!LO:TX:a:Bi:t=andante	!	!	!LO:TX:a:Bi:t=andante:rj	!	!LO:TX:a:Bi:t=andante	!	!LO:TX:a:Bi:t=andante	!	!	!	!	!
!	!	!	!LO:TX:a:Bi:t=Ave mari stella \net \nRegina Celli:problem=w źrodle napis po lewej stronie przed kluczem i oznaczeniem metrum	!	!LO:TX:a:Bi:t=Ave mari stella \net \nRegina Celli:problem=w źrodle napis po lewej stronie przed kluczem i oznaczeniem metrum	!	!	!	!	!	!	!
!LO:TX:b:Bi:t=Ave mari stella\nRegina Celli:rj	!	!	!	!	!	!	!	!	!	!	!	!
!	!	!	!	!	!	!	!	!	!	!LO:TX:a:Bi:t=6	!	!
!	!	!	!	!	!	!	!LO:N:vis=00	!	!	!LO:N:vis=00	!	!
.	.	.	.	.	8qqff#	.	.	.	.	.	.	.
8G\L	.	.	8b\L	.	4gg\	.	0r	.	.	0r	.	.
8G\	.	.	8b\J	.	.	.	.	.	.	.	.	.
8G\	.	.	16b\LL	.	(>16dd\LL	.	.	.	.	.	.	.
.	.	.	16g\	.	16b\)	.	.	.	.	.	.	.
8G\J	.	.	16cc\	.	(>16ee\	.	.	.	.	.	.	.
.	.	.	16b\JJ	.	16dd\JJ)	.	.	.	.	.	.	.
=2	=2	=2	=2	=2	=2	=2	=2	=2	=2	=2	=2	=2
8G\L	.	.	4b\	.	4dd\	.	.	.	.	.	.	.
8G\	.	.	.	.	.	.	.	.	.	.	.	.
8G\	.	.	(>16dd\LL	.	(>16bb\LL	.	.	.	.	.	.	.
.	.	.	16cc\)	.	16aa\)	.	.	.	.	.	.	.
8G\J	.	.	(>16cc\	.	(>16aa\	.	.	.	.	.	.	.
.	.	.	16b\JJ)	.	16gg\JJ)	.	.	.	.	.	.	.
=3	=3	=3	=3	=3	=3	=3	=3	=3	=3	=3	=3	=3
.	.	.	8qqb/	.	8qqgg#X/	.	.	.	.	.	.	.
8D\L	7	.	4cc\	.	4aa\	.	.	.	.	.	.	.
8D\	.	.	.	.	.	.	.	.	.	.	.	.
8D\	.	.	16a/LL	.	(>16cc\LL	.	.	.	.	.	.	.
.	.	.	16f#/	.	16a\)	.	.	.	.	.	.	.
8D\J	.	.	16b/	.	(>16dd\	.	.	.	.	.	.	.
.	.	.	16a/JJ	.	16cc\JJ)	.	.	.	.	.	.	.
=4	=4	=4	=4	=4	=4	=4	=4	=4	=4	=4	=4	=4
8D\L	7	.	4a/	.	4cc\	.	.	.	.	.	.	.
8D\	.	.	.	.	.	.	.	.	.	.	.	.
8D\	.	.	16cc\LL	.	16aa\LL	.	.	.	.	.	.	.
.	.	.	16b\	.	(>16gg\	.	.	.	.	.	.	.
8D\J	.	.	16b\	.	(>16gg\)	.	.	.	.	.	.	.
.	.	.	16a\JJ	.	16ff#\JJ)	.	.	.	.	.	.	.
!	!	!	!	!	!LO:LB:g=original	!	!	!	!	!	!	!
=5	=5	=5	=5	=5	=5	=5	=5	=5	=5	=5	=5	=5
!	!	!	!	!	!	!	!LO:N:vis=00	!	!	!LO:N:vis=0	!	!
8G\L	.	.	8g/L	.	8b\L	.	0r	.	.	1r	.	.
8G\	.	.	16b/L	.	16gg\L	.	.	.	.	.	.	.
.	.	.	16a/JJ	.	16ff#\JJ	.	.	.	.	.	.	.
8C\	6	.	16cc/LL	.	16ee\LL	.	.	.	.	.	.	.
.	.	.	16b/	.	16dd\	.	.	.	.	.	.	.
8C\J	5	.	16a/	.	16cc\	.	.	.	.	.	.	.
.	.	.	16g/JJ	.	16b\JJ	.	.	.	.	.	.	.
!	!	!	!LO:LB:g=original	!	!	!	!	!	!	!	!	!
=6	=6	=6	=6	=6	=6	=6	=6	=6	=6	=6	=6	=6
.	.	.	8qqg/	.	8qqb/	.	.	.	.	.	.	.
8.D\L	.	.	4f#/	.	4a/	.	.	.	.	.	.	.
16E\Jk	.	.	.	.	.	.	.	.	.	.	.	.
16D`</LL	.	.	4r	.	4r	.	.	.	.	.	.	.
16C`</	.	.	.	.	.	.	.	.	.	.	.	.
16BB`</	.	.	.	.	.	.	.	.	.	.	.	.
16AA`</JJ	.	.	.	.	.	.	.	.	.	.	.	.
=7	=7	=7	=7	=7	=7	=7	=7	=7	=7	=7	=7	=7
.	.	.	.	.	.	.	.	.	.	8qqff#/	.	.
!	!	!LO:DY:b:t=%s:rj	!	!LO:DY:b:t=%s&colon;	!	!	!	!	!	!	!	!
8r	.	p	8r	p	8r	.	.	.	.	4.gg\	A-	Re-
!	!	!	!	!	!	!LO:DY:b:rj	!	!	!	!	!	!
.	.	.	.	.	8qqff#/	p	.	.	.	.	.	.
8G\L	.	.	8b\L	.	8gg\L	.	.	.	.	.	.	.
8G\	.	.	8b\	.	8gg\	.	.	.	.	.	.	.
8G\J	.	.	8b\J	.	8gg\J	.	.	.	.	16dd\LL	-ve	-gi-
.	.	.	.	.	.	.	.	.	.	16b\JJ	.	.
!LO:LB:g=original	!	!	!	!	!	!	!	!	!	!	!	!
=8	=8	=8	=8	=8	=8	=8	=8	=8	=8	=8	=8	=8
.	.	.	.	.	.	.	.	.	.	8qqb/	.	.
8r	.	.	8r	.	8r	.	.	.	.	4.a\	ma-	-na
8F#\L	5	.	8cc\L	.	8aa\L	.	.	.	.	.	.	.
8F#\	.	.	8a\	.	8cc\	.	.	.	.	.	.	.
8F#\J	.	.	8a\J	.	8cc\J	.	.	.	.	16ee\LL	-ris	.
.	.	.	.	.	.	.	.	.	.	16cc\JJ	.	.
=9	=9	=9	=9	=9	=9	=9	=9	=9	=9	=9	=9	=9
!	!	!	!	!	!LO:TX:a:t=P:problem=mixed beam	!	!	!	!	!	!	!
!	!	!	!	!	!	!	!LO:N:vis=00	!	!	!	!	!
8G\L	.	.	8g/L	.	8cc\L	.	0r	.	.	8cc\	stel-	cel-
8G\	.	.	8g/	.	8b\	.	.	.	.	8b\	-la	-li
8B\	.	.	8d/	.	8.gg\	.	.	.	.	8gg\	De-	le-
8B\J	.	.	8d/J	.	.	.	.	.	.	8gg\	-i	-ta-
.	.	.	.	.	16g/Jk	.	.	.	.	.	.	.
=10	=10	=10	=10	=10	=10	=10	=10	=10	=10	=10	=10	=10
!	!	!	!LO:TX:a:t=P:problem=mixed beam	!	!	!	!	!	!	!	!	!
4c\	.	.	8.e/L	.	8.a\L	.	.	.	.	8.a\L	ma-	-re
.	.	.	16cc\Jk	.	16ee\Jk	.	.	.	.	16ee\Jk	.	.
!LO:TX:a:t=P:problem=mixed beam	!	!	!	!	!	!	!	!	!	!	!	!
8d\L	.	.	16b/LL	.	16dd\LL	.	.	.	.	16dd\LL	-ter	al-
.	.	.	16a/	.	16cc\	.	.	.	.	16cc\JJ	.	.
8D/J	.	.	16g/	.	16b\	.	.	.	.	16b\LL	al-	-le-
.	.	.	16f#/JJ	.	16a\JJ	.	.	.	.	16a\JJ	.	-lu-
=11	=11	=11	=11	=11	=11	=11	=11	=11	=11	=11	=11	=11
.	.	.	.	.	.	.	.	.	.	8qqa/	.	.
8G\L	.	.	8g/L	.	8g/L	.	.	.	.	4g\	-ma	-ia
8D\J	.	.	16B/L	.	16B/L	.	.	.	.	.	.	.
.	.	.	16d/JJ	.	16d/JJ	.	.	.	.	.	.	.
4GG/	.	.	4G/	.	4G/	.	.	.	.	8b\	ad-	.
.	.	.	.	.	.	.	.	.	.	8dd\	-que	le-
!	!	!	!	!	!LO:LB:g=original	!	!	!	!	!LO:LB:g=original	!	!
=12	=12	=12	=12	=12	=12	=12	=12	=12	=12	=12	=12	=12
8d\L	.	.	4r	.	4r	.	.	.	.	16dd\LL	sem-	-ta-
.	.	.	.	.	.	.	.	.	.	16ee\JJ	.	.
8A\	.	.	.	.	.	.	.	.	.	8cc\	-per	-re
8D\J	.	.	16d/LL	.	16d/LL	.	.	.	.	8r	.	.
.	.	.	16f#/	.	16f#/	.	.	.	.	.	.	.
8r	.	.	16a/	.	16a/	.	.	.	.	16cc\	at-	le-
.	.	.	16cc/JJ	.	16cc/JJ	.	.	.	.	16cc\	-que	.
=13	=13	=13	=13	=13	=13	=13	=13	=13	=13	=13	=13	=13
!LO:TX:a:t=P:problem=mixed beam	!	!	!	!	!	!	!	!	!	!	!	!
!	!	!	!	!	!	!	!LO:N:vis=0	!	!	!	!	!
8G\L	.	.	4r	.	4r	.	1r	.	.	16cc\LL	sem-	-ta-
.	.	.	.	.	.	.	.	.	.	16dd\JJ	.	.
8D\	.	.	.	.	.	.	.	.	.	8b\	-per	-re
8GG/J	.	.	16g\LL	.	16g\LL	.	.	.	.	8g/	fe-	al-
.	.	.	16b\	.	16b\	.	.	.	.	.	.	.
8r	.	.	16dd\	.	16dd\	.	.	.	.	8gg\	-lix	-le-
.	.	.	16gg\JJ	.	16gg\JJ	.	.	.	.	.	.	.
=14	=14	=14	=14	=14	=14	=14	=14	=14	=14	=14	=14	=14
*	*	*	*	*	*	*	*	*	*	*Xtuplet	*	*
4C/	.	.	8.e/L	.	8.a\L	.	.	.	.	8.a\	cel-	-lu-
.	.	.	16e/Jk	.	16ee\Jk	.	.	.	.	16ee\	-li	.
!LO:TX:a:t=P:problem=mixed beam	!	!	!	!	!	!	!	!	!	!	!	!
!	!	!	!	!	!LO:TUP:a:problem=klamra łukowa	!	!	!	!	!	!	!
8D\L	.	.	8.d/L	.	24dd\LL	.	.	.	.	24dd\LL	por-	.
.	.	.	.	.	24cc\	.	.	.	.	24cc\	.	.
.	.	.	.	.	24b\JJ	.	.	.	.	24b\JJ	.	.
!	!	!	!	!	!LO:TUP:a:problem=klamra łukowa	!	!	!	!	!	!	!
8DD/J	.	.	.	.	24cc\LL	.	.	.	.	24cc\LL	.	.
.	.	.	.	.	24b\	.	.	.	.	24b\	.	.
.	.	.	16c/Jk	.	.	.	.	.	.	.	.	.
.	.	.	.	.	24a\JJ	.	.	.	.	24a\JJ	.	.
!	!	!	!LO:LB:g=original	!	!	!	!	!	!	!	!	!
=15	=15	=15	=15	=15	=15	=15	=15	=15	=15	=15	=15	=15
.	.	.	8qqc/	.	8qqa/	.	.	.	.	8qqa/	.	.
!LO:TX:a:t=P:problem=mixed beam	!	!	!	!	!	!	!	!	!	!	!	!
8GG/L	.	.	2B/	.	2g/	.	2r	.	.	4g\	-ta	-ia
8G\J	.	.	.	.	.	.	.	.	.	.	.	.
4GG/	.	.	.	.	.	.	.	.	.	4r	.	.
=16	=16	=16	=16	=16	=16	=16	=16	=16	=16	=16	=16	=16
8G\L	5 x	.	8b\L	.	8dd\L	.	8b\	ſum-	Qui-	8dd\	Su-	Qui-
8G\	.	.	8b\	.	8dd\	.	8b\	-ens	-a	8dd\	-mens	-a
!LO:TX:a:t=P:problem=w źródle przedłużone cyfrowanie oznaczone za pomocą kropek\global	!	!	!	!	!	!	!	!	!	!	!	!
8G\	6_ 4_	.	8cc\	.	8ee\	.	8cc\	il-	quem	24ee\LL	il-	qeum
.	.	.	.	.	.	.	.	.	.	24gg\	.	.
.	.	.	.	.	.	.	.	.	.	24ff#\JJ	.	.
!	!	!	!	!	!	!	!	!	!	!LO:LB:g=original	!	!
.	.	.	.	.	.	.	.	.	.	8qqaa/	.	.
8G\J	X X	.	8cc\J	.	8ee\J	.	8cc\	-lud	me-	24gg\LL	-lud	me-
.	.	.	.	.	.	.	.	.	.	24ff#\	.	-ru-
.	.	.	.	.	.	.	.	.	.	24ee\JJ	.	-i-
!LO:LB:g=original	!	!	!	!	!	!	!	!	!	!	!	!
=17	=17	=17	=17	=17	=17	=17	=17	=17	=17	=17	=17	=17
*	*	*	*	*	*Xtuplet	*	*	*	*	*	*	*
8G\L	6 4	.	8cc\L	.	8ee\L	.	8cc\	a-	-ru-	8ee\	a-	-sti
8G\	# x	.	8b\J	.	8dd\J	.	8b\	-ve	-isti	8dd\	-ve	.
!	!	!	!LO:TUP:a:problem=klamra łukowa	!	!	!	!	!	!	!	!	!
8G\	.	.	24gg\LL	.	24bb\LL	.	4r	.	.	4r	.	.
.	.	.	24ff#\	.	24aa\	.	.	.	.	.	.	.
.	.	.	24ee\JJ	.	24gg\JJ	.	.	.	.	.	.	.
!	!	!	!LO:TUP:a:problem=klamra łukowa	!	!	!	!	!	!	!	!	!
8G\J	.	.	24dd\LL	.	24ff#\LL	.	.	.	.	.	.	.
.	.	.	24cc\	.	24ee\	.	.	.	.	.	.	.
.	.	.	24b\JJ	.	24dd\JJ	.	.	.	.	.	.	.
=18	=18	=18	=18	=18	=18	=18	=18	=18	=18	=18	=18	=18
*	*	*	*	*	*	*	*Xtuplet	*	*	*	*	*
8D\L	7_	.	8a/L	.	8cc\L	.	8a\	Ga-	Qui-	8cc\	ga-	Qui-
8D\	.	.	8a/	.	8cc\	.	8a\	-bri-	-a	8cc\	-bri-	-a
8D\	.	.	8a/	.	8cc\	.	8a\	-e-	quem	8cc\	-e-	quem
8D\J	X	.	8a/J	.	8cc\J	.	24cc\LL	-lis	me-	24ee\LL	-lis	me-
.	.	.	.	.	.	.	24b\	.	.	24dd\	.	.
.	.	.	.	.	.	.	24a\JJ	.	ru-	24cc\JJ	.	.
!	!	!	!	!	!LO:LB:g=original	!	!	!	!	!	!	!
=19	=19	=19	=19	=19	=19	=19	=19	=19	=19	=19	=19	=19
*	*	*	*Xtuplet	*	*	*	*	*	*	*	*	*
!LO:TX:a:t=P:problem=mixed beam	!	!	!	!	!	!	!	!	!	!	!	!
8G\L	.	.	8a/L	.	8cc\L	.	8a\	o-	-is-	8cc\	o-	-ru-
8GG/J	.	.	8g/J	.	8b\J	.	8g\	-re	-ti	8b\	-re	-isti
4r	.	.	24gg\LL	.	24gg\LL	.	4r	.	.	4r	.	.
.	.	.	24ff#\	.	24ff#\	.	.	.	.	.	.	.
.	.	.	24ee\JJ	.	24ee\JJ	.	.	.	.	.	.	.
.	.	.	24dd\LL	.	24dd\LL	.	.	.	.	.	.	.
.	.	.	24cc\	.	24cc\	.	.	.	.	.	.	.
.	.	.	24b\JJ	.	24b\JJ	.	.	.	.	.	.	.
*	*	*	*tuplet	*	*	*	*	*	*	*	*	*
=20	=20	=20	=20	=20	=20	=20	=20	=20	=20	=20	=20	=20
8D\L	7	.	4a/	.	4cc\	.	16a\LL	fun-	por-	16cc\LL	fun-	por-
.	.	.	.	.	.	.	16g\JJ	.	ta-	16b\JJ	.	-ta-
8D\	.	.	.	.	.	.	8a\	-da	-re	8cc\	-da	-re
!	!	!	!LO:TUP:b:problem=klamra łukowa	!	!	!	!	!	!	!	!	!
8D\	.	.	24a/LL	.	24cc\LL	.	8r	.	.	8r	.	.
.	.	.	24cc/	.	24ee\	.	.	.	.	.	.	.
.	.	.	24b/JJ	.	24dd\JJ	.	.	.	.	.	.	.
!	!	!	!LO:TUP:b:problem=klamra łukowa	!	!	!	!	!	!	!	!	!
8D\J	.	.	24a/LL	.	24cc\LL	.	8a\	nos	al-	8cc\	nos	al-
.	.	.	24g/	.	24b\	.	.	.	.	.	.	.
.	.	.	24f#/JJ	.	24a\JJ	.	.	.	.	.	.	.
!	!	!	!	!	!	!	!LO:LB:g=original	!	!	!	!	!
=21	=21	=21	=21	=21	=21	=21	=21	=21	=21	=21	=21	=21
*tremolo	*	*	*	*	*	*	*	*	*	*	*	*
8D\L	6 4	.	4r	.	4r	.	16g\	in	-le-	16b\	in	-le-
.	.	.	.	.	.	.	16f#\	pa-	-lu-	16a\	pa-	-lu-
8D\	.	.	.	.	.	.	8g\	-ce	-ia	8b\	-ce	-ia
!	!	!	!LO:TUP:b:problem=klamra łukowa	!	!	!	!	!	!	!	!	!
8D\	.	.	24g/LL	.	24b\LL	.	4r	.	.	4r	.	.
.	.	.	24b/	.	24dd\	.	.	.	.	.	.	.
.	.	.	24a/JJ	.	24cc\JJ	.	.	.	.	.	.	.
!	!	!	!LO:TUP:b:problem=klamra łukowa	!	!	!	!	!	!	!	!	!
8D\J	.	.	24g/LL	.	24b\LL	.	.	.	.	.	.	.
.	.	.	24f#/	.	24a\	.	.	.	.	.	.	.
.	.	.	24g/JJ	.	24g\JJ	.	.	.	.	.	.	.
!	!	!	!LO:LB:g=original	!	!	!	!	!	!	!	!	!
=22	=22	=22	=22	=22	=22	=22	=22	=22	=22	=22	=22	=22
8D\L	7	.	8.a/L	.	8.cc\L	.	4r	.	.	4r	.	.
8D\	.	.	.	.	.	.	.	.	.	.	.	.
.	.	.	32g/LL	.	32b\LL	.	.	.	.	.	.	.
.	.	.	32a/JJJ	.	32cc\JJJ	.	.	.	.	.	.	.
8D\	.	.	4r	.	4r	.	24a\LL	mu-	Qui-	24cc\LL	mu-	lui-
.	.	.	.	.	.	.	24cc\	.	.	24ee\	.	.
.	.	.	.	.	.	.	24b\JJ	.	.	24dd\JJ	.	.
!	!	!	!	!	!	!	!	!	!	!LO:LB:g=original	!	!
8D\J	.	.	.	.	.	.	24a\LL	-tas	-a	24cc\LL	-tans	-a
.	.	.	.	.	.	.	24g\	.	.	24b\	.	.
.	.	.	.	.	.	.	24f#\JJ	.	.	24a\JJ	.	.
=23	=23	=23	=23	=23	=23	=23	=23	=23	=23	=23	=23	=23
8D\L	6 4	.	8.g/L	.	8.b\L	.	4r	.	.	4r	.	.
8D\	.	.	.	.	.	.	.	.	.	.	.	.
.	.	.	32f#/LL	.	32a\LL	.	.	.	.	.	.	.
.	.	.	32g/JJJ	.	32b\JJJ	.	.	.	.	.	.	.
8D\	.	.	4r	.	4r	.	24g\LL	no-	quem	24b\LL	no-	quem
.	.	.	.	.	.	.	24b\	.	.	24dd\	.	.
.	.	.	.	.	.	.	24a\JJ	.	.	24cc\JJ	.	.
8D\J	.	.	.	.	.	.	8g\	-men	.	24b\LL	-men	.
.	.	.	.	.	.	.	.	.	.	24a\	.	.
.	.	.	.	.	.	.	.	.	.	24g\JJ	.	.
*Xtremolo	*	*	*	*	*	*	*	*	*	*	*	*
=24	=24	=24	=24	=24	=24	=24	=24	=24	=24	=24	=24	=24
4C/	.	.	4cc\	.	4ee\	.	4cc\	no-	me-	4ee\	no-	me-
4D/	.	.	16b/LL	.	16dd\LL	.	16b\LL	-men	-ru-	16dd\LL	-men	-ru-
.	.	.	16a/	.	16cc\	.	16a\JJ	.	.	16cc\JJ	.	.
.	.	.	16g/	.	16b\	.	16g\LL	o-	-is-	16b\LL	o-	-is-
.	.	.	16f#/JJ	.	16a\JJ	.	16f#\JJ	.	.	16a\JJ	.	.
=25	=25	=25	=25	=25	=25	=25	=25	=25	=25	=25	=25	=25
.	.	.	8qqf#/	.	8qqa/	.	8qqf#/	.	.	8qqa/	.	.
!LO:TX:a:t=P:problem=mixed beam	!	!	!	!	!	!	!	!	!	!	!	!
8G\L	.	.	2g/	.	2b\	.	2g\	-re	-ti	2b\	-re	-sti
16BB/L	.	.	.	.	.	.	.	.	.	.	.	.
16D/JJ	.	.	.	.	.	.	.	.	.	.	.	.
4GG/	.	.	.	.	.	.	.	.	.	.	.	.
!LO:LB:g=original	!	!	!	!	!	!	!	!	!	!	!	!
=26	=26	=26	=26	=26	=26	=26	=26	=26	=26	=26	=26	=26
8G\L	6_	.	8g/	.	8b\	.	8.b\	Sol-	Qu-	8.gg\	Sol-	qu-
8G\	X	.	4g/	.	4ee\	.	.	.	.	.	.	.
.	.	.	.	.	.	.	16a\	-ve	-em	16ff#\	-ve	-em
8G\	.	.	.	.	.	.	8g\	vin-	me-	16ee\LL	vin-	me-
.	.	.	.	.	.	.	.	.	.	16gg\JJ	.	.
8G#X\J	5	.	8f#/	.	8dd\	.	8f#\	-cla	-ru-	16bb\LL	-cla	-ru-
.	.	.	.	.	.	.	.	.	.	16dd\JJ	.	.
!	!	!	!	!	!LO:LB:g=original	!	!LO:LB:g=original	!	!	!	!	!
=27	=27	=27	=27	=27	=27	=27	=27	=27	=27	=27	=27	=27
!LO:TX:a:t=P:problem=mixed beam	!	!	!	!	!	!	!	!	!	!	!	!
8A\L	4	.	8dd\L	.	8ff#\L	.	8f#\	re-	-is-	8dd\	re-	-is-
!	!	!	!	!	!	!	!	!	!	!LO:TX:a:t=P:problem=w źródle # dopisany po prawej stronie nuty	!	!
!	!	!	!LO:SIC:s=8cc#:v	!	!	!	!	!	!	!	!	!
8AA/	#	.	8cc\J	.	8ee\J	.	8e\	-gis	-ti	8cc#\	-is	-ti
8AA/J	.	.	16a\LL	.	16a\LL	.	4r	.	.	4r	.	.
.	.	.	16cc\	.	16cc\	.	.	.	.	.	.	.
8r	.	.	16ee\	.	16ee\	.	.	.	.	.	.	.
.	.	.	16aa\JJ	.	16aa\JJ	.	.	.	.	.	.	.
=28	=28	=28	=28	=28	=28	=28	=28	=28	=28	=28	=28	=28
8A\L	7	.	4ee\	.	4gg\	.	16ee\LL	pro-	Qu-	16gg\LL	pro-	quia
.	.	.	.	.	.	.	16dd\JJ	.	-ia	16ff#\JJ	.	.
8A\	.	.	.	.	.	.	8ee\	-for	.	8gg\	-fer	.
!	!	!	!LO:TUP:a:problem=klamra łukowa	!	!	!	!	!	!	!	!	!
8A\	.	.	24ee\LL	.	24gg\LL	.	4r	.	.	4r	.	.
.	.	.	24gg\	.	24bb\	.	.	.	.	.	.	.
.	.	.	24ff#\JJ	.	24aa\JJ	.	.	.	.	.	.	.
!	!	!	!LO:TUP:a:problem=klamra łukowa	!	!	!	!	!	!	!	!	!
8A\J	.	.	24ee\LL	.	24gg\LL	.	.	.	.	.	.	.
.	.	.	24dd\	.	24ff#\	.	.	.	.	.	.	.
.	.	.	24cc#X\JJ	.	24ee\JJ	.	.	.	.	.	.	.
!	!	!	!	!	!	!	!	!	!	!LO:LB:g=original	!	!
=29	=29	=29	=29	=29	=29	=29	=29	=29	=29	=29	=29	=29
*tremolo	*	*	*	*	*	*	*	*	*	*	*	*
8A\L	6 4	.	4r	.	4r	.	16dd\LL	lu-	quem	16ff#\LL	lu-	quem
.	.	.	.	.	.	.	16cc\JJ	.	.	16ee\JJ	.	.
8A\	.	.	.	.	.	.	8dd\	-men	.	8ff#\	-men	.
!	!	!	!LO:TUP:a:problem=klamra łukowa	!	!	!	!	!	!	!	!	!
8A\	.	.	24dd\LL	.	24ff#\LL	.	4r	.	.	4r	.	.
.	.	.	24ff#\	.	24aa\	.	.	.	.	.	.	.
.	.	.	24ee\JJ	.	24gg\JJ	.	.	.	.	.	.	.
!	!	!	!LO:TUP:b:problem=klamra łukowa	!	!	!	!	!	!	!	!	!
8A\J	.	.	24a/LL	.	24ff#\LL	.	.	.	.	.	.	.
.	.	.	24g/	.	24ee\	.	.	.	.	.	.	.
.	.	.	24f#/JJ	.	24dd\JJ	.	.	.	.	.	.	.
!	!	!	!LO:LB:g=original	!	!	!	!	!	!	!	!	!
=30	=30	=30	=30	=30	=30	=30	=30	=30	=30	=30	=30	=30
8A\L	7	.	8.ee\L	.	8.gg\L	.	4r	.	.	4r	.	.
8A\	.	.	.	.	.	.	.	.	.	.	.	.
.	.	.	32dd\LL	.	32ff#\LL	.	.	.	.	.	.	.
.	.	.	32ee\JJJ	.	32gg\JJJ	.	.	.	.	.	.	.
8A\	.	.	4r	.	4r	.	24ee\LL	lu-	me-	24gg\LL	lu-	me-
.	.	.	.	.	.	.	24cc\	.	.	24ee\	.	.
.	.	.	.	.	.	.	24dd\JJ	.	.	24ff#\JJ	.	.
8A\J	.	.	.	.	.	.	24ee\LL	-men	-ru-	24gg\LL	-men	-ru-
.	.	.	.	.	.	.	24dd\	.	.	24ff#\	.	.
.	.	.	.	.	.	.	24cc\JJ	.	.	24ee\JJ	.	.
=31	=31	=31	=31	=31	=31	=31	=31	=31	=31	=31	=31	=31
8A\L	6 4	.	8.dd\L	.	8.ff#\L	.	4r	.	.	4r	.	.
8A\	.	.	.	.	.	.	.	.	.	.	.	.
.	.	.	32cc\LL	.	32ee\LL	.	.	.	.	.	.	.
.	.	.	32dd\JJJ	.	32ff#\JJJ	.	.	.	.	.	.	.
8A\	.	.	4r	.	4r	.	24a\LL	ce-	-is-	24ff#\LL	ce-	-is-
.	.	.	.	.	.	.	24f#\	.	.	24dd\	.	.
.	.	.	.	.	.	.	24g\JJ	.	.	24ee\JJ	.	.
8A\J	.	.	.	.	.	.	24a\LL	-cis	-ti	24ff#\LL	-cis	-ti
.	.	.	.	.	.	.	24g\	.	.	24ee\	.	.
.	.	.	.	.	.	.	24f#\JJ	.	.	24dd\JJ	.	.
*Xtremolo	*	*	*	*	*	*	*	*	*	*	*	*
=32	=32	=32	=32	=32	=32	=32	=32	=32	=32	=32	=32	=32
8D\L	.	.	8f#/L	.	8a\L	.	8f#\	ma-	por-	8a\	ma-	por-
8F#\J	.	.	8f#/	.	8a\	.	8f#\	-la	-ta-	16dd\	-la	-ta-
.	.	.	.	.	.	.	.	.	.	16a\	no-	.
4G\	.	.	8g/	.	8b\	.	8g\	no-	-re	4b\	-stra	re
.	.	.	8g/J	.	8b\J	.	8g\	-stra	al-	.	.	.
=33	=33	=33	=33	=33	=33	=33	=33	=33	=33	=33	=33	=33
!LO:SIC:s=4G:v	!	!	!	!	!	!	!	!	!	!	!	!
4A\	.	.	8g/L	.	8b\L	.	16b\LL	pel-	-le-	16gg\LL	pel-	al-
.	.	.	.	.	.	.	16g\	.	.	16ee\	.	.
!	!	!	!LO:SIC:s=8d:v	!	!LO:SIC:s=8dd:v	!	!	!	!	!	!	!
.	.	.	8e/J	.	8cc#X\J	.	16f#\	.	lu-	16dd\	.	-le-
.	.	.	.	.	.	.	16e\JJ	.	.	16cc#X\JJ	.	-lu-
!	!	!	!	!	!	!	!LO:LB:g=original	!	!	!	!	!
.	.	.	.	.	.	.	.	.	.	8qqcc#/	.	.
!	!	!	!	!	!	!	!LO:N:vis=4	!	!	!	!	!
4D\	.	.	4f#/	.	4dd\	.	8f#\	-le	-ia	4dd\	-le	-ia
!	!	!	!	!	!	!	!LO:N:vis=4	!	!	!	!	!
.	.	.	.	.	.	.	8r	.	.	.	.	.
=34	=34	=34	=34	=34	=34	=34	=34	=34	=34	=34	=34	=34
!	!	!	!	!	!LO:TX:a:Bi:t=1	!	!	!	!	!	!	!
4F#\	6	.	2r	.	2r	.	8a\	bo-	a-	16a\LL	bo-	al-
.	.	.	.	.	.	.	.	.	.	16cc#X\JJ	.	.
.	.	.	.	.	.	.	8a\	-na	-le-	16dd\LL	-na	-le-
.	.	.	.	.	.	.	.	.	.	16a\JJ	.	.
!	!	!	!	!	!	!	!	!	!	!LO:LB:g=original	!	!
4G\	7	.	.	.	.	.	8b\	cun-	-lu-	24b\LL	cun-	-lu-
.	6	.	.	.	.	.	.	.	.	24ee\	.	.
.	.	.	.	.	.	.	.	.	.	24ff#\JJ	.	.
.	.	.	.	.	.	.	8g\	-cta	.	16gg\LL	-cta	.
.	.	.	.	.	.	.	.	.	.	16ee\JJ	.	.
!	!	!	!	!	!LO:LB:g=original	!	!	!	!	!	!	!
=35	=35	=35	=35	=35	=35	=35	=35	=35	=35	=35	=35	=35
*	*	*	*Xtuplet	*	*tuplet	*	*	*	*	*	*	*
8A\L	.	.	8a/L	.	8ff#\L	.	8a\L	pos-	.	8ff#\L	pos-	.
.	.	.	.	.	8qqaa/	.	.	.	.	.	.	.
!	!	!	!	!	!LO:TUP:a:problem=klamra łukowa	!	!	!	!	!	!	!
8B\J	.	.	24b/L	.	24gg\L	.	24b\L	.	.	24gg\L	.	.
.	.	.	24a/	.	24ff#\	.	24a\	.	.	24ff#\	.	.
.	.	.	24g/JJ	.	24ee\JJ	.	24g\JJ	.	.	24ee\JJ	.	.
!LO:LB:g=original	!	!	!	!	!	!	!	!	!	!	!	!
8G\L	.	.	8f#/L	.	8dd\L	.	8f#\L	.	.	8.dd\L	.	.
8A\J	.	.	8g/J	.	8ee\J	.	8e\J	.	.	.	.	.
.	.	.	.	.	.	.	.	.	.	16cc\Jk	.	.
*	*	*	*tuplet	*	*	*	*	*	*	*	*	*
=36	=36	=36	=36	=36	=36	=36	=36	=36	=36	=36	=36	=36
.	.	.	8qqg/	.	8qqee/	.	8qqe/	.	.	8qqcc/	.	.
8D/L	.	.	2f#/	.	2dd\	.	4f#\	-ce	-ia	4dd\	-ce	-ia
8AA/J	.	.	.	.	.	.	.	.	.	.	.	.
4DD/	.	.	.	.	.	.	4r	.	.	4r	.	.
=37	=37	=37	=37	=37	=37	=37	=37	=37	=37	=37	=37	=37
!	!	!	!	!	!	!LO:DY:b	!	!	!	!	!	!
.	.	.	.	.	8qqccc#X/	f	.	.	.	.	.	.
!	!	!	!	!	!	!	!LO:TX:a:Bi:t=4	!	!	!LO:TX:a:Bi:t=16	!	!
!	!	!LO:DY:b	!	!LO:DY:b	!	!	!LO:N:vis=00	!	!	!LO:N:vis=00	!	!
8D\L	# x	f	4ff#\	f	4ddd\	.	0r	.	.	0r	.	.
8D\	.	.	.	.	.	.	.	.	.	.	.	.
8D\	.	.	16ff#\LL	.	16aa\LL	.	.	.	.	.	.	.
.	.	.	16ee\	.	16ff#\	.	.	.	.	.	.	.
8D\J	6 4	.	16gg\	.	16bb\	.	.	.	.	.	.	.
.	.	.	16ff#\JJ	.	16aa\JJ	.	.	.	.	.	.	.
=38	=38	=38	=38	=38	=38	=38	=38	=38	=38	=38	=38	=38
8D\L	#	.	4ff#\	.	4aa\	.	.	.	.	.	.	.
8D\	.	.	.	.	.	.	.	.	.	.	.	.
8D\	.	.	16dd\LL	.	16ff#\LL	.	.	.	.	.	.	.
.	.	.	16cc\	.	16ee\	.	.	.	.	.	.	.
8D\J	.	.	16ee\	.	16gg\	.	.	.	.	.	.	.
.	.	.	16dd\JJ	.	16ff#\JJ	.	.	.	.	.	.	.
!	!	!	!LO:LB:g=original	!	!	!	!	!	!	!	!	!
=39	=39	=39	=39	=39	=39	=39	=39	=39	=39	=39	=39	=39
8D\L	.	.	8dd\L	.	8ff#\L	.	.	.	.	.	.	.
!	!	!	!LO:TUP:a:problem=klamra łukowa	!	!LO:TUP:a:problem=klamra łukowa	!	!	!	!	!	!	!
8F#\	.	.	24ff#\L	.	24aa\L	.	.	.	.	.	.	.
.	.	.	24dd\	.	24ff#\	.	.	.	.	.	.	.
.	.	.	24ff#\JJ	.	24aa\JJ	.	.	.	.	.	.	.
.	.	.	8qqff#/	.	8qqaa/	.	.	.	.	.	.	.
8E\	.	.	4ee\	.	4gg\	.	.	.	.	.	.	.
8A\J	#	.	.	.	.	.	.	.	.	.	.	.
=40	=40	=40	=40	=40	=40	=40	=40	=40	=40	=40	=40	=40
!	!	!	!LO:TX:a:t=P:problem=mixed beam	!	!	!	!	!	!	!	!	!
8d\L	.	.	8dd\L	.	16ff#\LL	.	.	.	.	.	.	.
.	.	.	.	.	16dd\JJ	.	.	.	.	.	.	.
8A\J	.	.	16a/L	.	16a/LL	.	.	.	.	.	.	.
.	.	.	16f#/JJ	.	16f#/JJ	.	.	.	.	.	.	.
4D/	.	.	4d/	.	4d/	.	.	.	.	.	.	.
=41	=41	=41	=41	=41	=41	=41	=41	=41	=41	=41	=41	=41
!LO:TX:a:t=P:problem=w źródle niezgodność dynamiczna między głosami	!	!	!	!	!	!	!	!	!	!	!	!
!	!	!LO:DY:b:t=%s	!	!LO:DY:b:t=%s&colon;	!	!LO:DY:b	!	!	!	!LO:N:vis=00	!	!
8r	.	p	8r	f	8r	f	4dd\	mon-	Re-	0r	.	.
8D\L	.	.	8f#/L	.	8a/L	.	.	.	.	.	.	.
8D\	.	.	8f#/	.	8a/	.	16a\LL	-stra	-sur-	.	.	.
.	.	.	.	.	.	.	16f#\JJ	.	.	.	.	.
8D\J	.	.	8f#/J	.	8a/J	.	16b\LL	te	.	.	.	.
.	.	.	.	.	.	.	16a\JJ	.	.	.	.	.
=42	=42	=42	=42	=42	=42	=42	=42	=42	=42	=42	=42	=42
8r	.	.	8r	.	8a/L	.	4a\	es-	-re-	.	.	.
8D\L	.	.	8f#/L	.	8a/J	.	.	.	.	.	.	.
!	!	!	!	!	!LO:LB:g=original	!	!	!	!	!	!	!
8D\	.	.	8f#/J	.	16ff#\LL	.	16a\LL	-se	-xit	.	.	.
.	.	.	.	.	(>16ee\	.	16g\	.	.	.	.	.
8D\J	.	.	8r	.	(>16ee\)	.	16g\	.	.	.	.	.
.	.	.	.	.	16dd\JJ)	.	16f#\JJ	.	.	.	.	.
=43	=43	=43	=43	=43	=43	=43	=43	=43	=43	=43	=43	=43
.	.	.	.	.	8qqdd/	.	8qqf#/	.	.	.	.	.
8r	.	.	8r	.	8cc\L	.	4g\	ma-	si-	.	.	.
8C#X/L	5_	.	8g/L	.	8cc\	.	.	.	.	.	.	.
!	!	!	!	!	!	!	!LO:LB:g=original	!	!	!	!	!
8C#/	X	.	8g/	.	8cc\	.	16g\LL	.	-cut	.	.	.
.	.	.	.	.	.	.	16f#\	.	.	.	.	.
8C#/J	.	.	8g/J	.	8cc\J	.	16a\	.	.	.	.	.
.	.	.	.	.	.	.	16f#\JJ	.	.	.	.	.
!LO:LB:g=original	!	!	!	!	!	!	!	!	!	!	!	!
=44	=44	=44	=44	=44	=44	=44	=44	=44	=44	=44	=44	=44
8r	.	.	8r	.	8ee\L	.	8g\L	.	di-	.	.	.
8C#X/L	.	.	8g/L	.	16gg\L	.	16b\L	.	.	.	.	.
.	.	.	.	.	16ff#\JJ	.	16a\JJ	.	.	.	.	.
8C#/	.	.	8g/J	.	(>16ee\LL	.	16g\LL	.	-xit	.	.	.
.	.	.	.	.	16dd\)	.	16f#\	.	.	.	.	.
8C#/J	.	.	8r	.	(>16dd\	.	16f#\	.	.	.	.	.
.	.	.	.	.	16cc\JJ)	.	16e\JJ	.	.	.	.	.
=45	=45	=45	=45	=45	=45	=45	=45	=45	=45	=45	=45	=45
*tremolo	*	*	*	*	*	*	*	*	*	*	*	*
!	!	!	!LO:TX:a:t=P:problem=mixed beam	!	!	!	!	!	!	!	!	!
!	!	!	!	!	!	!	!	!	!	!LO:N:vis=00	!	!
8D\L	.	.	8.f#/L	.	8dd\L	.	8f#\	-trem	al-	0r	.	.
8D\	.	.	.	.	16ddd\L	.	16dd\	Sum-	-le-	.	.	.
.	.	.	16gg\Jk	.	16ccc\JJ	.	16b\	-mat	.	.	.	.
8D\	.	.	8ff#\L	.	8.aa\L	.	8a\	per	-lu-	.	.	.
8D\J	.	.	8ee\J	.	.	.	8g\	te	-ia	.	.	.
.	.	.	.	.	16gg\Jk	.	.	.	.	.	.	.
*	*	*	*	*	*	*	*tuplet	*	*	*	*	*
=46	=46	=46	=46	=46	=46	=46	=46	=46	=46	=46	=46	=46
!	!	!	!	!	!LO:TUP:a:problem=klamra łukowa	!	!LO:TUP:a:problem=klamra łukowa	!	!	!	!	!
8D\L	.	.	8dd\L	.	24ff#\LL	.	24f#\LL	pre-	al-	.	.	.
.	.	.	.	.	24bb\	.	24b\	.	.	.	.	.
.	.	.	.	.	24ccc\	.	24cc\	.	.	.	.	.
8D\	.	.	16ff#\L	.	24ddd\	.	24dd\	.	-le-	.	.	.
.	.	.	.	.	24ccc\	.	24cc\	.	.	.	.	.
.	.	.	16gg\JJ	.	.	.	.	.	.	.	.	.
.	.	.	.	.	24bb\JJ	.	24b\JJ	.	.	.	.	.
8D\	.	.	8ff#\L	.	8.aa\L	.	8a\L	-ces	-lu-	.	.	.
8D\J	.	.	8ee\J	.	.	.	8g\J	.	.	.	.	.
.	.	.	.	.	16gg\Jk	.	.	.	.	.	.	.
*Xtremolo	*	*	*	*	*	*	*	*	*	*	*	*
=47	=47	=47	=47	=47	=47	=47	=47	=47	=47	=47	=47	=47
*	*	*	*	*	*	*	*Xtuplet	*	*	*	*	*
.	.	.	8qqee/	.	8qqgg/	.	.	.	.	.	.	.
8D\L	.	.	8.dd\L	.	8.ff#\L	.	8f#\	qui	-ia	.	.	.
8F#\	.	.	.	.	.	.	24d\LL	pro	al-	.	.	.
.	.	.	.	.	.	.	24f#\	.	.	.	.	.
.	.	.	16ff#\Jk	.	16aa\Jk	.	.	.	.	.	.	.
.	.	.	.	.	.	.	24a\JJ	.	.	.	.	.
!	!	!	!LO:LB:g=original	!	!	!	!	!	!	!	!	!
8G\	.	.	16ff#\LL	.	16aa\LL	.	8g\	no-	-le-	.	.	.
.	.	.	16ee\	.	(>16gg\	.	.	.	.	.	.	.
8G\J	.	.	16ee\	.	(>16gg\)	.	8f#\	-bis	.	.	.	.
.	.	.	16dd\JJ	.	16ff#\JJ)	.	.	.	.	.	.	.
=48	=48	=48	=48	=48	=48	=48	=48	=48	=48	=48	=48	=48
*	*	*	*	*	*Xtuplet	*	*	*	*	*	*	*
8A\L	.	.	8dd\L	.	8ff#\L	.	8f#\	na-	-lu-	.	.	.
8E\J	.	.	8cc#X\J	.	8ee\J	.	8e\	-tus	-ia	.	.	.
!	!	!	!	!	!LO:LB:g=original	!	!	!	!	!	!	!
!	!	!	!LO:TUP:a:problem=klamra łukowa	!	!	!	!	!	!	!	!	!
4AA/	.	.	24a\LL	.	24a\LL	.	4r	.	.	.	.	.
.	.	.	24cc#X\	.	24cc#X\	.	.	.	.	.	.	.
.	.	.	24ee\JJ	.	24ee\JJ	.	.	.	.	.	.	.
!	!	!	!LO:TUP:a:problem=klamra łukowa	!	!	!	!	!	!	!	!	!
.	.	.	24cc#\LL	.	24cc#\LL	.	.	.	.	.	.	.
.	.	.	24ee\	.	24ee\	.	.	.	.	.	.	.
.	.	.	24aa\JJ	.	24aa\JJ	.	.	.	.	.	.	.
!	!	!	!	!	!	!	!LO:LB:g=original	!	!	!	!	!
=49	=49	=49	=49	=49	=49	=49	=49	=49	=49	=49	=49	=49
*tremolo	*	*	*	*	*	*	*	*	*	*	*	*
!	!	!	!	!	!	!	!	!	!	!LO:N:vis=00	!	!
8A\L	7	.	4a/	.	4r	.	16g\LL	tu-	si-	0r	.	.
.	.	.	.	.	.	.	16f#\JJ	.	.	.	.	.
8A\	.	.	.	.	.	.	8g\	-lit	-cut	.	.	.
!	!	!	!LO:TUP:a:problem=klamra łukowa	!	!	!	!	!	!	!	!	!
8A\	.	.	24ee\LL	.	24gg\LL	.	4r	.	.	.	.	.
.	.	.	24gg\	.	24bb\	.	.	.	.	.	.	.
.	.	.	24ff#\JJ	.	24aa\JJ	.	.	.	.	.	.	.
!	!	!	!LO:TUP:a:problem=klamra łukowa	!	!	!	!	!	!	!	!	!
8A\J	.	.	24ee\LL	.	24gg\LL	.	.	.	.	.	.	.
.	.	.	24dd\	.	24ff#\	.	.	.	.	.	.	.
.	.	.	24cc#X\JJ	.	24ee\JJ	.	.	.	.	.	.	.
*Xtremolo	*	*	*	*	*	*	*	*	*	*	*	*
=50	=50	=50	=50	=50	=50	=50	=50	=50	=50	=50	=50	=50
!	!	!	!LO:TX:a:t=P:problem=mixed beam	!	!	!	!	!	!	!	!	!
8D\L	.	.	8a/L	.	16ff#\LL	.	16f#\LL	eſ-	di-	.	.	.
.	.	.	.	.	16dd\	.	16e\J	.	.	.	.	.
8D\	.	.	8a/	.	16ff#\	.	8f#\J	.	-xit	.	.	.
.	.	.	.	.	16aa\JJ	.	.	.	.	.	.	.
8F#\	6	.	8ff#\	.	4ddd\	.	4dd\	-se	.	.	.	.
8F#\J	.	.	8ff#\J	.	.	.	.	.	.	.	.	.
*	*	*	*	*	*tuplet	*	*	*	*	*	*	*
=51	=51	=51	=51	=51	=51	=51	=51	=51	=51	=51	=51	=51
!LO:TX:a:t=P:problem=mixed beam	!	!	!	!	!	!	!	!	!	!	!	!
!	!	!	!LO:TUP:a:problem=klamra łukowa	!	!LO:TUP:a:problem=klamra łukowa	!	!	!	!	!	!	!
8G\L	3	.	24gg\LL	.	24ddd\LL	.	24b\LL	tu-	al-	.	.	.
.	.	.	24ff#\	.	24ccc\	.	24a\	.	.	.	.	.
.	.	.	24ee\JJ	.	24bb\JJ	.	24g\JJ	.	.	.	.	.
*	*	*	*Xtuplet	*	*	*	*	*	*	*	*	*
8G\	6	.	24b/LL	.	32aa\LLL	.	24g\LL	.	-le-	.	.	.
.	.	.	.	.	(>32gg\	.	.	.	.	.	.	.
.	.	.	24a/	.	.	.	24f#\	.	.	.	.	.
.	.	.	.	.	32ff#\)	.	.	.	.	.	.	.
.	.	.	24g/JJ	.	.	.	24e\JJ	.	.	.	.	.
.	.	.	.	.	32ee\JJJ	.	.	.	.	.	.	.
8A\	4	.	8.f#/L	.	8.dd\L	.	8.d\L	.	-lu-	.	.	.
8AA/J	3	.	.	.	.	.	.	.	.	.	.	.
.	.	.	16g/Jk	.	16ee\Jk	.	16e\Jk	.	.	.	.	.
=52	=52	=52	=52	=52	=52	=52	=52	=52	=52	=52	=52	=52
.	.	.	8qqg/	.	8qqee/	.	.	.	.	.	.	.
8D/L	.	.	2f#/	.	2dd\	.	4d\	-tus	-ia	.	.	.
8Cn/	.	.	.	.	.	.	.	.	.	.	.	.
8BB/	.	.	.	.	.	.	4r	.	.	.	.	.
8AA/J	.	.	.	.	.	.	.	.	.	.	.	.
!LO:LB:g=original	!	!	!	!	!	!	!	!	!	!	!	!
=53	=53	=53	=53	=53	=53	=53	=53	=53	=53	=53	=53	=53
.	.	.	.	.	8qqcc/	.	.	.	.	.	.	.
!	!	!	!	!	!	!	!LO:TX:a:Bi:t=12	!	!	!	!	!
!	!	!	!	!	!	!	!LO:N:vis=00	!	!	!	!	!
4GG/	.	.	4g/	.	4b\	.	0r	.	.	16r	.	.
.	.	.	.	.	.	.	.	.	.	16g\LL	Vir-	O-
.	.	.	.	.	.	.	.	.	.	16a\	.	.
.	.	.	.	.	.	.	.	.	.	16b\JJ	.	.
4r	.	.	4r	.	4r	.	.	.	.	16cc\LL	.	.
.	.	.	.	.	.	.	.	.	.	16dd\	.	.
.	.	.	.	.	.	.	.	.	.	16ee\	.	.
.	.	.	.	.	.	.	.	.	.	16ff#X\JJ	.	.
=54	=54	=54	=54	=54	=54	=54	=54	=54	=54	=54	=54	=54
.	.	.	.	.	.	.	.	.	.	8qqff#/	.	.
8G\L	.	.	8r	.	16gg\LL	.	.	.	.	4gg\	-go	-ra
.	.	.	.	.	16ff#\	.	.	.	.	.	.	.
8G\	.	.	8b\L	.	16ee\	.	.	.	.	.	.	.
.	.	.	.	.	16dd\JJ	.	.	.	.	.	.	.
8G\	.	.	8b\	.	16cc\LL	.	.	.	.	16gg\LL	sin-	pro
.	.	.	.	.	16b\	.	.	.	.	16dd\JJ	.	.
8G\J	.	.	8b\J	.	16a\	.	.	.	.	16cc\LL	-gu-	.
.	.	.	.	.	16b\JJ	.	.	.	.	16b\JJ	.	.
!	!	!	!LO:LB:g=original	!	!	!	!	!	!	!	!	!
=55	=55	=55	=55	=55	=55	=55	=55	=55	=55	=55	=55	=55
4D\	7	.	8cc\L	.	16cc\LL	.	.	.	.	16cc\LL	-la-	no-
.	.	.	.	.	16a\	.	.	.	.	16b\JJ	.	.
.	.	.	8cc\	.	16b\	.	.	.	.	4cc\	-ris	-bis
.	.	.	.	.	16cc\JJ	.	.	.	.	.	.	.
4r	.	.	8cc\	.	16dd\LL	.	.	.	.	.	.	.
.	.	.	.	.	16ee\	.	.	.	.	.	.	.
.	.	.	8cc\J	.	16ff#\	.	.	.	.	8r	.	.
.	.	.	.	.	16gg\JJ	.	.	.	.	.	.	.
!	!	!	!	!	!LO:LB:g=original	!	!	!	!	!LO:LB:g=original	!	!
=56	=56	=56	=56	=56	=56	=56	=56	=56	=56	=56	=56	=56
8D\L	.	.	8r	.	8aa\L	.	.	.	.	16r	.	.
.	.	.	.	.	.	.	.	.	.	16a\LL	int-	o-
8D\	.	.	8a/L	.	8cc\	.	.	.	.	16b\	.	.
.	.	.	.	.	.	.	.	.	.	16cc\JJ	.	.
8D\	.	.	8a/	.	8cc\	.	.	.	.	16dd\LL	.	.
.	.	.	.	.	.	.	.	.	.	16ee\	.	.
8D\J	.	.	8a/J	.	8cc\J	.	.	.	.	16ff#\	.	.
.	.	.	.	.	.	.	.	.	.	16gg\JJ	.	.
=57	=57	=57	=57	=57	=57	=57	=57	=57	=57	=57	=57	=57
.	.	.	.	.	.	.	.	.	.	8qqgg#X/	.	.
!	!	!	!	!	!	!	!LO:N:vis=00	!	!	!	!	!
8r	.	.	8r	.	8r	.	0r	.	.	4aa\	-ter	-ra
8D\L	.	.	8a/L	.	8cc\L	.	.	.	.	.	.	.
8D\	.	.	8a/	.	8cc\	.	.	.	.	16aa\LL	om-	pro
.	.	.	.	.	.	.	.	.	.	16cc\JJ	.	.
8D\J	.	.	8a/J	.	8cc\J	.	.	.	.	16b\LL	-nes	.
.	.	.	.	.	.	.	.	.	.	16a\JJ	.	.
=58	=58	=58	=58	=58	=58	=58	=58	=58	=58	=58	=58	=58
8G\L	.	.	8a/L	.	16b\LL	.	.	.	.	16b\LL	mi-	no-
.	.	.	.	.	16a\J	.	.	.	.	16a\JJ	.	.
8D\J	.	.	8g/J	.	8b\J	.	.	.	.	8b\	-tis	-bis
!	!	!	!	!	!LO:TUP:a:problem=klamra łukowa	!	!	!	!	!	!	!
4GG/	.	.	4b\	.	24dd\LL	.	.	.	.	4r	.	.
.	.	.	.	.	24b\	.	.	.	.	.	.	.
.	.	.	.	.	24dd\J	.	.	.	.	.	.	.
.	.	.	.	.	8gg\J	.	.	.	.	.	.	.
=59	=59	=59	=59	=59	=59	=59	=59	=59	=59	=59	=59	=59
4c\	.	.	8g/	.	8ee\	.	.	.	.	16ee\	nos	De-
.	.	.	.	.	.	.	.	.	.	16ee\	cul-	-um
.	.	.	8r	.	8r	.	.	.	.	16gg\	-pis	al-
.	.	.	.	.	.	.	.	.	.	16ee\	so-	-le-
4B\	.	.	8g/	.	8dd\	.	.	.	.	8dd\	-lu-	-lu-
.	.	.	8r	.	8r	.	.	.	.	8cc\	-tos	-ia
=60	=60	=60	=60	=60	=60	=60	=60	=60	=60	=60	=60	=60
*	*	*	*	*	*	*	*	*	*	*	*ij	*
4A\	6\	.	8g/	.	8cc\	.	.	.	.	16cc\	nos	De-
.	.	.	.	.	.	.	.	.	.	16cc\	cul-	-um
.	.	.	8r	.	8r	.	.	.	.	16ee\	-pis	al-
.	.	.	.	.	.	.	.	.	.	16cc\	so-	-le-
4G\	.	.	8g/	.	8b\	.	.	.	.	8b\	-lu-	-lu-
.	.	.	8r	.	8r	.	.	.	.	8b\	-tos	-ia
*	*	*	*	*	*	*	*	*	*	*	*Xij	*
!	!	!	!	!	!	!	!	!	!	!LO:LB:g=original	!	!
=61	=61	=61	=61	=61	=61	=61	=61	=61	=61	=61	=61	=61
!	!	!	!	!	!	!	!LO:N:vis=00	!	!	!	!	!
8C/L	.	.	8e/L	.	8r	.	0r	.	.	16a\LL	mi-	De-
.	.	.	.	.	.	.	.	.	.	16e\JJ	.	.
8C/	.	.	8e/	.	8cc\L	.	.	.	.	16cc\LL	-tes	-um
.	.	.	.	.	.	.	.	.	.	16a\JJ	.	.
8C/	.	.	8a/	.	8cc\	.	.	.	.	16ee\LL	fac	al-
.	.	.	.	.	.	.	.	.	.	16cc\JJ	.	.
8C/J	.	.	8a/J	.	8cc\J	.	.	.	.	16a\LL	-et	-le-
.	.	.	.	.	.	.	.	.	.	16cc\JJ	.	.
!LO:LB:g=original	!	!	!	!	!	!	!	!	!	!	!	!
=62	=62	=62	=62	=62	=62	=62	=62	=62	=62	=62	=62	=62
8D/L	4	.	8g/L	.	8b\L	.	.	.	.	8b\	cas-	-lu-
.	3	.	.	.	.	.	.	.	.	.	.	.
8D/	.	.	8f#/J	.	8a\J	.	.	.	.	8a\	-tos	-ia
8BB/	.	.	8r	.	8r	.	.	.	.	4r	.	.
8GG/J	.	.	8b\	.	8dd\	.	.	.	.	.	.	.
=63	=63	=63	=63	=63	=63	=63	=63	=63	=63	=63	=63	=63
!	!	!	!	!	!	!	!	!	!	!LO:N:vis=0	!	!
4C/	.	.	16cc\LL	.	16ee\LL	.	.	.	.	1r	.	.
.	.	.	16cc\	.	16ee\	.	.	.	.	.	.	.
.	.	.	16ee\	.	16ccc\	.	.	.	.	.	.	.
.	.	.	16cc\JJ	.	16ee\JJ	.	.	.	.	.	.	.
.	.	.	8qqcc/	.	8qqee/	.	.	.	.	.	.	.
4BB/	.	.	4b\	.	4dd\	.	.	.	.	.	.	.
!	!	!	!LO:LB:g=original	!	!	!	!	!	!	!	!	!
=64	=64	=64	=64	=64	=64	=64	=64	=64	=64	=64	=64	=64
*	*	*	*	*	*Xtuplet	*	*	*	*	*	*	*
4AA/	.	.	24a/LL	.	24cc\LL	.	.	.	.	.	.	.
.	.	.	24a/	.	24cc\	.	.	.	.	.	.	.
.	.	.	24a/JJ	.	24cc\JJ	.	.	.	.	.	.	.
.	.	.	16cc/LL	.	16aa\LL	.	.	.	.	.	.	.
.	.	.	16a/JJ	.	16cc\JJ	.	.	.	.	.	.	.
.	.	.	8qqa/	.	8qqcc/	.	.	.	.	.	.	.
!	!	!	!	!	!LO:TX:a:t=P:problem=w źródle kasownik przy znakach przykluczowych dopiero w nowym systemie	!	!	!	!	!	!	!
4GG/	.	.	4g/	.	4b\	.	.	.	.	.	.	.
*	*	*	*	*	*tuplet	*	*	*	*	*	*	*
*k[cancel]	*	*	*k[cancel]	*	*k[cancel]	*	*	*	*	*k[cancel]	*	*
!	!	!	!	!	!LO:LB:g=original	!	!	!	!	!	!	!
=65	=65	=65	=65	=65	=65	=65	=65	=65	=65	=65	=65	=65
*k[b-e-]	*	*	*k[b-e-]	*	*k[b-e-]	*	*k[b-e-]	*	*	*k[b-e-]	*	*
8G\L	.	.	8r	.	8r	.	4b-X\	Vi-	o-	4dd\	Vi-	o-
8G\	.	.	8b-\L	.	8dd\L	.	.	.	.	.	.	.
8G\	.	.	8cc\	.	8ee-X\	.	16b-\LL	-tam	-ra	16gg\LL	-tam	-ra
.	.	.	.	.	.	.	16cc\JJ	.	.	16ee-X\JJ	.	.
8G\J	.	.	8a\J	.	8cc\J	.	16b-\LL	prae-	.	16dd\LL	pres-	.
.	.	.	.	.	.	.	16a\JJ	.	.	16cc\JJ	.	.
=66	=66	=66	=66	=66	=66	=66	=66	=66	=66	=66	=66	=66
*tremolo	*	*	*	*	*	*	*	*	*	*	*	*
8G\L	.	.	8r	.	8r	.	4b-X\	-stam	pro	4dd\	-tam	pro
8G\	.	.	8b-X\L	.	8dd\L	.	.	.	.	.	.	.
8G\	.	.	8cc\	.	8ee-X\	.	16cc\LL	pu-	.	16ee-X\LL	pu-	.
.	.	.	.	.	.	.	16e-\JJ	.	.	16cc\JJ	.	.
8G\J	.	.	8a\J	.	8cc\J	.	16d\LL	-ram	.	16b-\LL	-ram	.
.	.	.	.	.	.	.	16c\JJ	.	.	16a\JJ	.	.
*Xtremolo	*	*	*	*	*	*	*	*	*	*	*	*
!	!	!	!	!	!	!	!LO:LB:g=original	!	!	!	!	!
=67	=67	=67	=67	=67	=67	=67	=67	=67	=67	=67	=67	=67
!	!	!	!	!	!	!	!LO:TX:a:t=P:problem=w źródle ogonek nuty 8.g po lewej stronie	!	!	!	!	!
8G\L	.	.	8r	.	8r	.	8.g\	in-	no-	8.b-\	in-	no-
8B-X\	.	.	8g/L	.	8b-X/L	.	.	.	.	.	.	.
!	!	!	!	!	!	!	!LO:N:vis=16	!	!	!	!	!
.	.	.	.	.	.	.	32f\LLL	-ter	-bis	32a\LLL	ter	.
!	!	!	!	!	!	!	!LO:N:vis=16	!	!	!	!	!
.	.	.	.	.	.	.	32g\JJJ	.	.	32b-\JJJ	.	.
8c\	.	.	8a/	.	8cc/	.	8a\	pa-	.	8cc\	pa-	-bis
!	!	!	!	!	!	!	!LO:SIC:s=8f#:v	!	!	!	!	!
8d\J	.	.	8f#X/J	.	8a/J	.	8f\	-ra	.	8a\	-ra	.
=68	=68	=68	=68	=68	=68	=68	=68	=68	=68	=68	=68	=68
.	.	.	8qqf/	.	.	.	.	.	.	.	.	.
8G\L	.	.	4g/	.	8b-/L	.	8g\	tu-	de-	8b-\	tu-	de-
8D\J	.	.	.	.	8g/J	.	8g\	-tum	-cum	4g\	-tum	-um
4GG/	.	.	4r	.	4r	.	4r	.	.	.	.	.
.	.	.	.	.	.	.	.	.	.	8r	.	.
!	!	!	!	!	!	!	!	!	!	!LO:LB:g=original	!	!
=69	=69	=69	=69	=69	=69	=69	=69	=69	=69	=69	=69	=69
!	!	!	!	!	!	!	!LO:TX:a:Bi:t=2	!	!	!	!	!
!	!	!	!	!	!	!	!LO:N:vis=0	!	!	!	!	!
8r	.	.	8r	.	8r	.	1r	.	.	4ff\	ut	o-
8G\L	.	.	8bn\L	.	8ffn\L	.	.	.	.	.	.	.
8G\	.	.	8b\	.	8ff\	.	.	.	.	16aa-X\LL	vi-	-ra
.	.	.	.	.	.	.	.	.	.	16ffn\JJ	.	.
8G\J	.	.	8b\J	.	8ff\J	.	.	.	.	16ee-X\LL	-den-	pro
.	.	.	.	.	.	.	.	.	.	16dd\JJ	.	.
=70	=70	=70	=70	=70	=70	=70	=70	=70	=70	=70	=70	=70
8r	.	.	8r	.	8r	.	.	.	.	16cc\LL	-tes	no-
.	.	.	.	.	.	.	.	.	.	16bn\JJ	.	.
8c\L	.	.	8g/L	.	8ee-X\L	.	.	.	.	16dd\LL	Je-	.
.	.	.	.	.	.	.	.	.	.	16cc\JJ	.	.
8c\	.	.	8g/	.	8ee-\	.	.	.	.	4ee-X\	-sum	-bis
8c\J	.	.	8g/J	.	8ee-\J	.	.	.	.	.	.	.
!LO:LB:g=original	!	!	!	!	!	!	!	!	!	!	!	!
=71	=71	=71	=71	=71	=71	=71	=71	=71	=71	=71	=71	=71
8r	.	.	8r	.	8r	.	4cc\	ut	o-	4ee-\	et	o-
8F#X\L	.	.	8a/L	.	8ee-\L	.	.	.	.	.	.	.
8F#\	.	.	8a/	.	8ee-\	.	16ee-X\LL	vi-	-ra	16gg\LL	vi-	-ra
.	.	.	.	.	.	.	16cc\JJ	.	.	16ee-\JJ	.	.
8F#\J	.	.	8a/J	.	8ee-\J	.	16b-X\LL	-den-	pro	16dd\LL	-den-	pro
.	.	.	.	.	.	.	16a\JJ	.	.	16cc\JJ	.	.
=72	=72	=72	=72	=72	=72	=72	=72	=72	=72	=72	=72	=72
8G\L	.	.	8r	.	8r	.	16g\LL	-tes	no-	16b-X\LL	-tes	no-
.	.	.	.	.	.	.	16f#X\JJ	.	.	16a\JJ	Je-	.
8D\J	.	.	8g/L	.	8dd\L	.	16a\LL	Je-	-bis	16cc\LL	.	.
.	.	.	.	.	.	.	16g\JJ	.	.	16b-\JJ	.	.
8BB-/L	.	.	8g/	.	8dd\	.	4b-X\	-sum	.	4dd\	-sum	-bis
8GG/J	.	.	8g/J	.	8dd\J	.	.	.	.	.	.	.
!	!	!	!LO:LB:g=original	!	!	!	!	!	!	!	!	!
=73	=73	=73	=73	=73	=73	=73	=73	=73	=73	=73	=73	=73
*tremolo	*	*	*	*	*	*	*	*	*	*	*	*
8G\L	.	.	8r	.	8r	.	8b-\	sem-	de-	8gg\	sem-	De-
8G\	.	.	8b-X\	.	8gg\	.	8r	.	.	8r	.	.
8G\	.	.	8r	.	8r	.	8cc\	-per	-um	8ee-X\	-per	-um
8G\J	.	.	8cc\	.	8ee-X\	.	8r	.	.	8r	.	.
=74	=74	=74	=74	=74	=74	=74	=74	=74	=74	=74	=74	=74
8G\L	.	.	8r	.	8r	.	8a\	col-	al-	8cc\	col-	al-
8G\	.	.	8a/	.	8cc\	.	8r	.	.	8r	.	.
8G\	.	.	8g/L	.	8b-X\L	.	8r	.	.	8r	.	.
8G\J	.	.	16b-/L	.	16dd\L	.	16b-X\LL	-le-	-le-	16dd\LL	-le-	-le-
.	.	.	16g/JJ	.	16b-\JJ	.	16g\JJ	.	.	16b-\JJ	.	.
!	!	!	!	!	!LO:LB:g=original	!	!	!	!	!	!	!
*Xtremolo	*	*	*	*	*	*	*	*	*	*	*	*
=75	=75	=75	=75	=75	=75	=75	=75	=75	=75	=75	=75	=75
!LO:TX:a:t=P:problem=mixed beam	!	!	!	!	!	!	!	!	!	!	!	!
8d\L	.	.	8g/L	.	8b-/L	.	8g\	-ter-	-lu-	8b-\	-ter-	-lu-
8D/J	.	.	8f#X/J	.	8a/J	.	8f#X\	-mur	-ia	8a\	-mur	-ia
!	!	!	!LO:SIC:s=16b-:v	!	!	!	!	!	!	!	!	!
16d\LL	.	.	16bn\LL	.	16gg\LL	.	4r	.	.	4r	.	.
16c\	.	.	16cc\	.	16een\	.	.	.	.	.	.	.
!LO:SIC:s=16b-:v	!	!	!LO:SIC:s=16b-:v	!	!	!	!	!	!	!	!	!
16Bn\	.	.	16b\	.	16dd\	.	.	.	.	.	.	.
16A\JJ	.	.	16a\JJ	.	16cc\JJ	.	.	.	.	.	.	.
*	*	*	*k[cancel]	*	*k[cancel]	*	*	*	*	*	*	*
!	!	!	!	!	!	!	!LO:LB:g=original	!	!	!LO:LB:g=original	!	!
=76	=76	=76	=76	=76	=76	=76	=76	=76	=76	=76	=76	=76
*	*	*	*k[f#]	*	*k[f#]	*	*	*	*	*	*	*
*	*	*	*k[b-e-]	*	*k[b-e-]	*	*	*	*	*	*	*
!	!	!	!LO:TX:a:t=P:problem=w źródle zmieniona tonacja [pomyłka skryptora]	!	!LO:TX:a:t=P:problem=w źródle zmieniona tonacja [pomyłka skryptora]	!	!	!	!	!	!	!
8G\L	.	.	8b-\L	.	16b-\LL	.	8b-\	ſit	De-	8dd\	ſit-	De-
.	.	.	.	.	16gg\J	.	.	.	.	.	.	.
8G\	.	.	8b-\	.	8ggT>\J	.	8b-\	laus	-um	8dd\	-laus	-um
8G\	6 4	.	8cc\	.	8ee-\L	.	16cc\LL	De-	al-	16ee-\LL	De-	al-
.	.	.	.	.	.	.	16dd\JJ	.	.	16ff\JJ	.	.
8G\J	.	.	8cc\J	.	8ee-\J	.	16ee-\LL	-o	-le-	16gg\LL	-o	-le-
.	.	.	.	.	.	.	16cc\JJ	.	.	16ee-\JJ	.	.
=77	=77	=77	=77	=77	=77	=77	=77	=77	=77	=77	=77	=77
!LO:TX:a:t=P:problem=mixed beam	!	!	!	!	!	!	!	!	!	!	!	!
8G\L	6 4	.	8cc\L	.	8ee-\L	.	8cc\	Pa-	-lu-	8ee-\	Pa-	-lu-
.	x 3	.	.	.	.	.	.	.	.	.	.	.
8GG/J	.	.	8b-\J	.	8dd\J	.	8b-\	-tri	-ia	8dd\	-tri	-ia
4r	.	.	16b-/LL	.	16dd\LL	.	4r	.	.	4r	.	.
.	.	.	16g/	.	16b-\	.	.	.	.	.	.	.
.	.	.	16b-/	.	16dd\	.	.	.	.	.	.	.
.	.	.	16g/JJ	.	16b-\JJ	.	.	.	.	.	.	.
=78	=78	=78	=78	=78	=78	=78	=78	=78	=78	=78	=78	=78
.	.	.	.	.	8qqb-/	.	.	.	.	.	.	.
*	*	*	*tremolo	*	*	*	*	*	*	*	*	*
8F\L	5	.	8a/L	.	8cc\L	.	8a\	Sum-	De-	8cc\	Sum-	De-
8F\	.	.	8a/	.	8cc\	.	8a\	-mo	-um	8cc\	-mo	-um
8F\	.	.	8a/	.	8cc\	.	8a\	Chri-	al-	8cc\	Chri-	al-
8F\J	.	.	8a/J	.	8cc\J	.	24cc\LL	-sto	-le-	24ee-\LL	-sto	-le-
.	.	.	.	.	.	.	24b-\	.	.	24dd\	.	.
.	.	.	.	.	.	.	24a\JJ	.	.	24cc\JJ	.	.
*	*	*	*Xtremolo	*	*	*	*	*	*	*	*	*
=79	=79	=79	=79	=79	=79	=79	=79	=79	=79	=79	=79	=79
!LO:TX:a:t=P:problem=mixed beam	!	!	!	!	!	!	!	!	!	!	!	!
8G\L	.	.	8a/L	.	8cc\L	.	8a\	de-	-lu-	8cc\	de-	-lu-
8GG/J	.	.	8g/J	.	8b-\J	.	8g\	-cus	-ia	8b-\	-cus	-ia
4r	.	.	16d/LL	.	16b-/LL	.	4r	.	.	4r	.	.
.	.	.	16B-/	.	16g/	.	.	.	.	.	.	.
.	.	.	16B-/	.	16b-/	.	.	.	.	.	.	.
.	.	.	16B-/JJ	.	16g/JJ	.	.	.	.	.	.	.
*	*	*	*tuplet	*	*	*	*	*	*	*	*	*
!LO:LB:g=original	!	!	!	!	!	!	!	!	!	!	!	!
=80	=80	=80	=80	=80	=80	=80	=80	=80	=80	=80	=80	=80
8D\L	7	.	4r	.	4r	.	16a\	Spi-	o-	16cc\	Spi-	o-
.	.	.	.	.	.	.	16g\	-ri-	.	16b-\	-ri-	.
8D\	.	.	.	.	.	.	8a\	-tu	-ra	8cc\	-tu	-ra
!	!	!	!LO:LB:g=original	!	!	!	!	!	!	!	!	!
!	!	!	!LO:TUP:b:problem=klamra łukowa	!	!LO:TUP:a:problem=klamra łukowa	!	!	!	!	!	!	!
8D\	.	.	24a/LL	.	24cc\LL	.	8r	.	.	8r	.	.
.	.	.	24cc/	.	24ee-\	.	.	.	.	.	.	.
.	.	.	24b-/JJ	.	24dd\JJ	.	.	.	.	.	.	.
!	!	!	!	!	!	!	!	!	!	!LO:TX:b:Bi:t=cito Ver	!	!
!	!	!	!LO:TUP:b:problem=klamra łukowa	!	!LO:TUP:a:problem=klamra łukowa	!	!	!	!	!	!	!
8D\J	.	.	24a/LL	.	24cc\LL	.	8a\	spi-	pro-	8cc\	Spi-	pro
.	.	.	24g/	.	24b-\	.	.	.	.	.	.	.
.	.	.	24f#X/JJ	.	24a\JJ	.	.	.	.	.	.	.
!	!	!	!	!	!	!	!	!	!	!LO:PB:g=original	!	!
=81	=81	=81	=81	=81	=81	=81	=81	=81	=81	=81	=81	=81
*tremolo	*	*	*	*	*	*	*	*	*	*	*	*
8D\L	6 4	.	4r	.	4r	.	16g\LL	-ri-	-no-	16b-\LL	-ri-	no-
.	.	.	.	.	.	.	16f#X\JJ	.	.	16a\JJ	.	.
8D\	.	.	.	.	.	.	8g\	-tu	-bis	8b-\	-tu	-bis
!	!	!	!	!	!LO:TUP:a:problem=klamra łukowa	!	!	!	!	!	!	!
8D\	.	.	24g/LL	.	24b-\LL	.	4r	.	.	4r	.	.
.	.	.	24b-/	.	24dd\	.	.	.	.	.	.	.
.	.	.	24a/JJ	.	24cc\JJ	.	.	.	.	.	.	.
!	!	!	!	!	!LO:LB:g=original	!	!	!	!	!	!	!
*	*	*	*	*	*Xtuplet	*	*	*	*	*	*	*
8D\J	.	.	8g/	.	24b-\LL	.	.	.	.	.	.	.
.	.	.	.	.	24a\	.	.	.	.	.	.	.
.	.	.	.	.	24b-\JJ	.	.	.	.	.	.	.
!	!	!	!	!	!	!	!LO:LB:g=original	!	!	!	!	!
=82	=82	=82	=82	=82	=82	=82	=82	=82	=82	=82	=82	=82
8D\L	7	.	32a/LLL	.	32cc\LLL	.	4r	.	.	4r	.	.
.	.	.	32g/JJ	.	32b-\JJ	.	.	.	.	.	.	.
.	.	.	8.a/J	.	8.cc\J	.	.	.	.	.	.	.
8D\	.	.	.	.	.	.	.	.	.	.	.	.
8D\	.	.	4r	.	4r	.	24a\LL	Spi-	De-	24cc\LL	Spi-	De-
.	.	.	.	.	.	.	24cc\	.	.	24ee-\	.	.
.	.	.	.	.	.	.	24b-\JJ	.	.	24dd\JJ	.	.
8D\J	.	.	.	.	.	.	24a\LL	-ri-	.	24cc\LL	-ri-	.
.	.	.	.	.	.	.	24g\	.	.	24b-\	.	.
.	.	.	.	.	.	.	24f\JJ	.	.	24a\JJ	.	.
=83	=83	=83	=83	=83	=83	=83	=83	=83	=83	=83	=83	=83
8D\L	6 4	.	32g/LLL	.	32b-\LLL	.	8g\	-tui	-um	8b-\	-tu	-um
.	.	.	32f/JJ	.	32a\JJ	.	.	.	.	.	.	.
.	.	.	8.g/J	.	8.b-\J	.	.	.	.	.	.	.
8D\	.	.	.	.	.	.	8r	.	.	8r	.	.
8D\	.	.	4r	.	4r	.	24g\LL	San-	De-	24b-\LL	San-	De-
.	.	.	.	.	.	.	24b-\	.	.	24dd\	.	.
.	.	.	.	.	.	.	24a\JJ	.	.	24cc\JJ	.	.
8D\J	.	.	.	.	.	.	8g\	-cto	.	24b-\LL	-cto	.
.	.	.	.	.	.	.	.	.	.	24a\	.	.
.	.	.	.	.	.	.	.	.	.	24g\JJ	.	.
*Xtremolo	*	*	*	*	*	*	*	*	*	*	*	*
*	*	*	*	*	*	*	*tuplet	*	*	*	*	*
=84	=84	=84	=84	=84	=84	=84	=84	=84	=84	=84	=84	=84
16G\LL	.	.	16b-\LL	.	32b-\LLL	.	4g\	Tri-	-um	4b-\	Tri-	-um
.	.	.	.	.	32gg\JJ	.	.	.	.	.	.	.
16G\	.	.	16b-\	.	8.ggT>\J	.	.	.	.	.	.	.
16G\	.	.	16b-\	.	.	.	.	.	.	.	.	.
16G\JJ	.	.	16b-\JJ	.	.	.	.	.	.	.	.	.
*	*	*	*tremolo	*	*	*	*	*	*	*	*	*
16GG/LL	.	.	16b-\LL	.	4gg\	.	4b-\	-bus	al-	4gg\	-bus	al-
16GG/	.	.	16b-\	.	.	.	.	.	.	.	.	.
16GG/	.	.	16b-\	.	.	.	.	.	.	.	.	.
16GG/JJ	.	.	16b-\JJ	.	.	.	.	.	.	.	.	.
=85	=85	=85	=85	=85	=85	=85	=85	=85	=85	=85	=85	=85
*tremolo	*	*	*	*	*	*	*	*	*	*	*	*
16G\LL	.	.	16a\LL	.	32ff\LLL	.	4a\	ho-	-le-	4ff\	ho-	-le-
.	.	.	.	.	32cc\JJ	.	.	.	.	.	.	.
16G\	.	.	16a\	.	8.cc\J	.	.	.	.	.	.	.
16G\	.	.	16a\	.	.	.	.	.	.	.	.	.
16G\JJ	.	.	16a\JJ	.	.	.	.	.	.	.	.	.
16G\LL	6 4	.	16cc\LL	.	4cc\	.	4a\	-nor	-lu-	4cc\	.	-lu-
16G\	.	.	16cc\	.	.	.	.	.	.	.	.	.
16G\	.	.	16cc\	.	.	.	.	.	.	.	.	.
16G\JJ	.	.	16cc\JJ	.	.	.	.	.	.	.	.	.
=86	=86	=86	=86	=86	=86	=86	=86	=86	=86	=86	=86	=86
*	*	*	*	*	*	*	*	*ij	*	*	*	*
16GG/LL	# x	.	16b-\LL	.	32b-\LLL	.	4g\	Tri-	-ia	4b-\	.	-ia
.	.	.	.	.	32ee-\JJ	.	.	.	.	.	.	.
16GG/	.	.	16b-\	.	8.ee-\J	.	.	.	.	.	.	.
16GG/	.	.	16b-\	.	.	.	.	.	.	.	.	.
16GG/JJ	.	.	16b-\JJ	.	.	.	.	.	.	.	.	.
16GG/LL	6 4	.	16cc\LL	.	4ee-\	.	4cc\	-bus	al-	4ee-\	.	al-
16GG/	.	.	16cc\	.	.	.	.	.	.	.	.	.
16GG/	.	.	16cc\	.	.	.	.	.	.	.	.	.
16GG/JJ	.	.	16cc\JJ	.	.	.	.	.	.	.	.	.
=87	=87	=87	=87	=87	=87	=87	=87	=87	=87	=87	=87	=87
16G\LL	#	.	16b-\LL	.	32dd\LLL	.	4b-\	ho-	-le-	4dd\	.	-le-
.	.	.	.	.	32cc\JJ	.	.	.	.	.	.	.
16G\	.	.	16b-\	.	8.cc\J	.	.	.	.	.	.	.
16G\	.	.	16b-\	.	.	.	.	.	.	.	.	.
16G\JJ	.	.	16b-\JJ	.	.	.	.	.	.	.	.	.
16G\LL	4 2	.	16a/LL	.	4ccT>\	.	4a\	-nor	-lu-	4cc\	-nor	-lu-
16G\	.	.	16a/	.	.	.	.	.	.	.	.	.
16G\	.	.	16a/	.	.	.	.	.	.	.	.	.
16G\JJ	.	.	16a/JJ	.	.	.	.	.	.	.	.	.
*	*	*	*	*	*	*	*	*Xij	*	*	*	*
*Xtremolo	*	*	*Xtremolo	*	*	*	*	*	*	*	*	*
!	!	!	!LO:LB:g=original	!	!	!	!	!	!	!LO:LB:g=original	!	!
=88	=88	=88	=88	=88	=88	=88	=88	=88	=88	=88	=88	=88
!	!	!	!LO:N:vis=0	!	!LO:N:vis=0	!	!	!	!	!	!	!
4G\	.	.	1r	.	1r	.	8g\	Tri-	-ia	8b-\	tri-	-ia
.	.	.	.	.	.	.	16b-\LL	bus	al-	16gg\LL	-bus	al-
.	.	.	.	.	.	.	16cc\JJ	.	.	16ee-\JJ	.	.
8r	.	.	.	.	.	.	8b-\	ho-	-le-	8dd\	ho-	-le-
8D\	7	.	.	.	.	.	8a\	-nor	-lu-	8cc\	-nor	-lu-
!LO:LB:g=original	!	!	!	!	!	!	!LO:LB:g=original	!	!	!	!	!
=89	=89	=89	=89	=89	=89	=89	=89	=89	=89	=89	=89	=89
4G\	.	.	.	.	.	.	8g\	u-	-ia	24b-\LL	u-	-ia
.	.	.	.	.	.	.	.	.	.	24ee-\	.	.
.	.	.	.	.	.	.	.	.	.	24ff\JJ	.	al-
.	.	.	.	.	.	.	16b-\LL	-nus	al-	24gg\LL	-nus	-le-
.	.	.	.	.	.	.	.	.	.	24ff\	.	.
.	.	.	.	.	.	.	16cc\JJ	.	.	.	.	.
.	.	.	.	.	.	.	.	.	.	24ee-\JJ	.	.
8r	.	.	.	.	.	.	8b-\L	a-	-le-	8dd\L	a-	-lu-
8D\	7	.	.	.	.	.	8a\J	.	-lu-	8cc\J	.	.
*	*	*	*	*	*	*	*	*	*	*tuplet	*	*
=90	=90	=90	=90	=90	=90	=90	=90	=90	=90	=90	=90	=90
4G\	.	.	2r	.	2r	.	8g\	-men	-ia	8.b-\	-men	-ia
.	.	.	.	.	.	.	16f\LL	a-	.	.	.	.
.	.	.	.	.	.	.	16g\JJ	.	.	32a\LLL	a-	al-
.	.	.	.	.	.	.	.	.	.	32b-\JJJ	.	.
4C/	.	.	.	.	.	.	8a\L	-men	al-	8cc\	-men	-le-
.	.	.	.	.	.	.	8f\J	a-	-le-	8a\	a-	.
=91	=91	=91	=91	=91	=91	=91	=91	=91	=91	=91	=91	=91
8D/L	.	.	4g/	.	4b-/	.	4g\	.	-lu-	4b-\	.	-lu-
8C/	.	.	.	.	.	.	.	.	.	.	.	.
8D/	.	.	4f/	.	4a/	.	4f\	.	.	4a\	.	.
8DD/J	.	.	.	.	.	.	.	.	.	.	.	.
=92	=92	=92	=92	=92	=92	=92	=92	=92	=92	=92	=92	=92
.	.	.	8qqf/	.	8qqa/	.	8qqf/	.	.	8qqee-/	.	.
8G\L	.	.	2g/	.	2b-\	.	2g\	-men	-ia	2b-\	-men	-ia
8D\J	.	.	.	.	.	.	.	.	.	.	.	.
4GG/	.	.	.	.	.	.	.	.	.	.	.	.
!	!	!	!	!	!LO:LB:g=original	!	!	!	!	!	!	!
=93	=93	=93	=93	=93	=93	=93	=93	=93	=93	=93	=93	=93
!	!	!	!	!	!	!LO:DY:b	!	!	!	!	!	!
.	.	.	.	.	8qqff/	f	.	.	.	.	.	.
!	!	!	!	!	!	!	!LO:TX:a:Bi:t=4	!	!	!LO:TX:a:Bi:t=4	!	!
!	!	!LO:DY:b	!	!LO:DY:b	!	!	!LO:N:vis=00	!	!	!LO:N:vis=00	!	!
8BB-/L	.	f	8g/L	f	4gg\	.	0r	.	.	0r	.	.
8BB-/	.	.	8d/	.	.	.	.	.	.	.	.	.
8BB-/	.	.	8d/	.	16ee-\LL	.	.	.	.	.	.	.
.	.	.	.	.	16dd\	.	.	.	.	.	.	.
8BB-/J	.	.	8d/J	.	16cc\	.	.	.	.	.	.	.
.	.	.	.	.	16b-\JJ	.	.	.	.	.	.	.
=94	=94	=94	=94	=94	=94	=94	=94	=94	=94	=94	=94	=94
8C/L	.	.	8e-/L	.	16a/LL	.	.	.	.	.	.	.
.	.	.	.	.	16g/	.	.	.	.	.	.	.
8C/	.	.	8e-/	.	16f/	.	.	.	.	.	.	.
.	.	.	.	.	16e-/JJ	.	.	.	.	.	.	.
8D/	.	.	8f/	.	16d/LL	.	.	.	.	.	.	.
.	.	.	.	.	16f/	.	.	.	.	.	.	.
8D/J	.	.	8f/J	.	16a/	.	.	.	.	.	.	.
.	.	.	.	.	16cc/JJ	.	.	.	.	.	.	.
=95	=95	=95	=95	=95	=95	=95	=95	=95	=95	=95	=95	=95
!LO:TX:a:t=P:problem=mixed beam	!	!	!	!	!	!	!	!	!	!	!	!
8G\L	.	.	8g/L	.	24b-\LL	.	.	.	.	.	.	.
.	.	.	.	.	24a\	.	.	.	.	.	.	.
.	.	.	.	.	24b-\JJ	.	.	.	.	.	.	.
8C\	6	.	8e-/	.	24cc\LL	.	.	.	.	.	.	.
.	.	.	.	.	24b-\	.	.	.	.	.	.	.
.	.	.	.	.	24a\JJ	.	.	.	.	.	.	.
8D\	4	.	8d/	.	8.g/L	.	.	.	.	.	.	.
.	3	.	.	.	.	.	.	.	.	.	.	.
8DD/J	.	.	8d/J	.	.	.	.	.	.	.	.	.
.	.	.	.	.	16a/Jk	.	.	.	.	.	.	.
*	*	*	*	*	*tuplet	*	*	*	*	*	*	*
=96	=96	=96	=96	=96	=96	=96	=96	=96	=96	=96	=96	=96
.	.	.	.	.	8qqa/	.	.	.	.	.	.	.
8G\L	.	.	8g/L	.	8g/L	.	.	.	.	.	.	.
8D\J	.	.	8d/J	.	8d/J	.	.	.	.	.	.	.
4GG/	.	.	4G/	.	4G/	.	.	.	.	.	.	.
==	==	==	==	==	==	==	==	==	==	==	==	==
*-	*-	*-	*-	*-	*-	*-	*-	*-	*-	*-	*-	*-
!!title: @{OTL};
!!!RDF**kern: > = above
!!!RDF**kern: < = below
!!!RDF**dynam: f = "for", fontstyle="bold-italic"
!!!RDF**dynam: p = "pia", fontstyle="bold-italic"
!!!EED: Wojciech Jakubiak-Danek
!!!EST: 2021-01-04
!!!URL-scan: http://bc.bdsandomierz.pl/dlibra/publication/1276/edition/1244/content
!!!ONB-nifc: UWAGA: uwzględnić oba teksty (Ave maris stella i Regina caeli)
!!!ENC: Berenika Jozajtis
!!!END: 2020-11-16
